!!!COM: Fanny Hensel
!!!CNT: Deutsch
!!!TXO: Deutsch
!!!OTL: Mignon
!!!LYR: Goethe
!!!OPR: 
!!!OPS: No Opus information available
!!!ONM: 
!!!ENC: Ben Fuhrman
!!!YOR: Frauen komponieren: 25 Lieder fu2r Singstimme und Klavier
!!!YOR: Mainz, B. Schott's So2hne, 1992.
!!!ODT: 1826
!!NB: Only vocal melody encoded.
!!NB: First instance of melodic material only encoded.
!!created: 2/16/10 1:20PM
!!proofed and posted: 2/16/10 1:21PM
**kern	**silbe
*clef G2	*
*k[b-e-]	*
*M3/4	*
=1	=1
{2dd	{Nur
8ee-	wer
8dd	die
=2	=2
2dd	Sehn
4cc#	-sucht
=3	=3
4ccn}	kennt,}
4r	.
4r	.
=4	=4
{4b-	{weiss,
4a-	was
4g	ich
=5	=5
4g	lei-
4f#}	-de!}
4r	.
=6	=6
{4g	{Al-
4g	-lein
4g	und
=7	=7
2a-	ab-
4a-	-ge-
=8	=8
4.dd	-trennt
8cc	von
8b-	al-
8a-	-ler
=9	=9
4a-	Freu-
4g}	-de,}
4r	.
=10	=10
{2ee-	{seh
8dd	ich
8ee-	ans
=11	=11
2ff	Fir-
4b-	-ma-
=12	=12
4.gg	-ment
8gg	nach
8ff	je-
8ee-	-ner
=13	=13
4ee-	Sei-
4dd}	-te,}
4r	.
=14	=14
{2ee-	{ach!
8dd	der
8cc#	mich
=15	=15
2dd	liebt
4a	und
=16	=16
2.cc	kennt,
=17	=17
4g	ist
4cc	in
4ee-	der
=18	=18
[2.gg	Wei-
=19	=19
4gg]	|
4f#}	-te,}
8r	.
{8dd	{es
=20	=20
(4ffn	schwin
4dd)	|
4cc	delt
=21	=21
4bn	mir,
4r	.
4ff	es
=22	=22
4.gg	brennt
8ff	mein
8een	Ein-
8dd	-ge-
=23	=23
4dd	-wei-
4cc#	-de,
4cc#	es
=24	=24
4ccn}	brennt,}
4r	.
{4dd	{es
=25	=25
4ee-	brennt
4r	.
4dd	mein
=26	=26
2dd	Ein-
4cc	-ge-
=27	=27
4cc	-wei-
4bn}	-de,}
4r	.
=28	=28
{4g	{nur
4cc	wer
4ee-	die
=29	=29
2aa-	Sehn-
4gg	-sucht
=30	=30
4ff#}	kennt,}
4r	.
4r	.
=31	=31
{4gg	{weiss,
4b-	was
4a	ich
=32	=32
4a-	lei-
4g}	-de!}
4r	.
==	==
*-	*-
